src/images/pages/header/ic-reports.svg

<svg width="12" height="24" viewBox="0 0 12 24" fill="none" xmlns="http://www.w3.org/2000/svg">
<g clip-path="url(#clip0_10459_14929)">
<path d="M11 18V10H7.5C6.65625 10 6 9.34375 6 8.5V5H2C1.4375 5 1 5.46875 1 6V18C1 18.5625 1.4375 19 2 19H10C10.5312 19 11 18.5625 11 18ZM10.9688 9C10.9375 8.9375 10.9062 8.84375 10.8438 8.78125L7.21875 5.15625C7.15625 5.09375 7.0625 5.0625 7 5.03125V8.5C7 8.78125 7.21875 9 7.5 9H10.9688ZM0 6C0 4.90625 0.875 4 2 4H6.875C7.25 4 7.65625 4.1875 7.9375 4.46875L11.5312 8.0625C11.8125 8.34375 12 8.75 12 9.125V18C12 19.125 11.0938 20 10 20H2C0.875 20 0 19.125 0 18V6Z" fill="black" fill-opacity="0.72"/>
</g>
<defs>
<clipPath id="clip0_10459_14929">
<rect width="12" height="24" fill="white"/>
</clipPath>
</defs>
</svg>

<svg xmlns="http://www.w3.org/2000/svg" width="12" height="24" fill="none"><g clip-path="url(#a)"><path fill="#000" fill-opacity=".72" d="M11 18v-8H7.5A1.48 1.48 0 0 1 6 8.5V5H2c-.562 0-1 .469-1 1v12c0 .563.438 1 1 1h8c.531 0 1-.437 1-1m-.031-9c-.031-.062-.063-.156-.125-.219L7.219 5.156c-.063-.062-.157-.093-.219-.125V8.5c0 .281.219.5.5.5zM0 6c0-1.094.875-2 2-2h4.875c.375 0 .781.188 1.063.469l3.593 3.593c.281.282.469.688.469 1.063V18c0 1.125-.906 2-2 2H2c-1.125 0-2-.875-2-2z"/></g><defs><clipPath id="a"><path fill="#fff" d="M0 0h12v24H0z"/></clipPath></defs></svg>
